X:1
T:Mesta ti scargo
T:Mesta ti scargo
T:Angelo Notari
T:Source : Prime Musiche nuove a uno, due et tre voci +BC---London---G.Hole---1613. Editor : André Vierendeels (23/10/16).
T:Notes : Original clefs : C3, C4, F4, F4 Editorial accidentals above the staff m 53 in A, rest notated as quarter rest in original Mss  
T:©
T:©
T:©
T:©
T:©
T:©
C:Angelo Notari
Z:©
%%score [ 1 2 3 ] 4
L:1/8
Q:1/4=99
M:4/4
K:F
V:1 treble nm="Alto" snm="A"
V:2 treble-8 nm="Tenor" snm="T"
V:3 bass nm="Bass" snm="B"
V:4 bass nm="MusicXML Part"
V:1
 G8 | G6 F2 | _E4- ED E/D/E/F/ | D4 z4 | z4 z2 A2 | ^FFFF G4 | E4 z4 | D2 D2 D2 DE | G3 ^F G2 A2 | %9
w: Me-|sta ti-|cor- * * * * * *|go,|e|pal- li- da fi- gu-|ra,|Dar- mi gli'ul- ti- mi|ba- ci'e dir pian-|
 D8 | D8 | z2 D2 F4 | _E4 D4 | z8 | z8 | z EEE G2 G2 | F4 E4 | z8 | z8 | z8 | z4 z2 DD | %21
w: gen-|do,|ti la-|scio'hoi- me,|||ne la ^par- ti- ta'os-|cu- ra,||||que- sti'es-|
 E2 ^FF G4- | G2 D2 EF G2- | G2 ^FE F4 | G8 |: F8 | G2 D2 F4 | A8 | G2 _E2 D4 | z4 z2 D2 | %30
w: tre- mi d'A- Amor|_ frut- ti cog- lien-||do.|O|mio fi- del,|o|mio fi- del,|à|
 C2 F2 _E2 E2- | E_E D2 D2 =B,2 | z2 G3 G F2 | E2 ^F2 z4 | z2 A,2 B,CDE | F2 A,2 B,2 B,2 | %36
w: Dio, à Dio mor-|* te mi fu- ra,|mor- te mi|fu- ra;|Men vo- * * *|* ri- man- t'in|
 G,6 A,2 | B,4 A,2 D2 | C2 C2 D3 D | F4 E2 E2 | F>G F>G A4- | A2 A2 A4 | A8 | D8 | D4 F4 | %45
w: pa- *|* ce, ri-|man- t'in pa- *|* ce, in|Ciel _ _ _ _|_ t'at- ten|do,|e'in|un co'l|
 F4 z2 FF | F4- ^F4 | G6 D2 | E/D/E/F/ G/F/G/E/ F/D/E/F/ G/F/E/D/ | ^C2 F/E/F/G/ E4 | D4 z4 | z8 | %52
w: dir nel suo|tri- *|sto sem-|bian- * * * * * * * * * * * * * * *||te||
 z EEE F2 D2 | _EDCB, C2 D2 | z8 | F_EDC D4 |"^-natural" E4 z4 | GF_ED C4 | D4 z4 |"^b" FEDC D4 | %60
w: l'a- ma- ta for- ma|mi spa- rio di- nan- te,||mi spa- rio di- nan-|te,|mi apa- rio di- nant-|te,|mi spa- rio di- nan-|
 !fermata!D8 |] %61
w: te.|
V:2
 z8 | z8 | z8 | z2 d2 =BBBB | c4 A4 | z2 A2 dddd | G4 A4 | z8 | z8 | z8 | z8 | z8 | z8 | z2 A2 c4 | %14
w: |||E pal- li- da fi-|gu- ra,|e pal- li- da fi-|gu- ra,|||||||ti la-|
 B4 A4 | z8 | z AAA c2 c2 | B4 A2 AA | =B2 cc d4 | f6 ee | e4 d4 | z8 | z8 | z8 | z8 |: d8 | %26
w: scio'hoi- me||ne la par- ti- ta'os-|cu- ra, que- sti'e-|tre- mi d'A- mor|frut- ti cog-|lien- do,|||||O|
 B2 B2 c4 | c8 | d2 G2 =B4 | z2 B2 A4 | z2 d2 G2 G2- | GG G2 ^F2 G2 | z2 d3 d d2 | ^c2 d2 z4 | z8 | %35
w: mio fi- del,|o|mio fi- del,|à Dio,|à Dio mor-|* te mi fu- ra,|mor- te mi|fu- ra;||
 z8 | z8 | z8 | z8 | z8 | z8 | z8 | z8 | z8 | z8 | z8 | z8 | z8 | z8 | z8 | z AAA B2 G2 | %51
w: |||||||||||||||l'a- ma- ta for- ma|
 AGFE F2 G2 | A4 z4 | z GGG A2 B2 | dcBA GA/B/ c2 | A4 z4 | z4 dcBA | G4 G4 |"^b" z4 fedc | %59
w: mi spa- rio di- nan- *|te,-|l'a- ma- ta for- ma|mi spa- rio di- nan- * * *|te,|mi spa- rio di-|nan- te,|mi spa- rio di-|
 dc BA/G/ A4 | !fermata!=B8 |] %61
w: nan- * * * * *|te.|
V:3
 G,8 | _E,6 =B,,2 | C,8 | D,4 z2 G,2 | E,E,E,E, F,4 | D,2 D,2 =B,,B,,B,,B,, | C,2 =B,,2 A,,2 z2 | %7
w: Me-|sta ti|scor-|go, e|pal- li- da fi- gu-|ra, e pal- li- da fu-|fu- * ra,|
 z8 | z8 | z8 | z4 z2 G,2 | B,4 _A,4 | G,4 z D,D,D, | F,2 F,2 _E,4 | D,6 A,,2 | C,4 B,,4 | A,,8 | %17
w: |||ti|la- scio'hoi-|me, ne la par-|ti- ta'os- cu-|ra, ti|la- scio'hoi-|me,|
 z8 | D,D, E,2 ^F,F, G,2 | D,4 B,2 G,2 | A,4 D,2 z2 | z8 | z8 | z8 | z8 |: B,,8 | _E,2 G,2 F,4 | %27
w: |que- sti'es- tre- mi d'A- mor|frut- ti cog-|lien- do,|||||O|mio fi- del,|
 F,8 | =B,,2 C,2 G,,4- | G,,2 G,2 D,4 | z4 z2 C,2- | C,C, G,,2 D,2 G,,2 | z2 G,3 G, D,2 | %33
w: o|mio fi- del,|_ à Dio,|mor-|* te mi fu- ra,|mor- te mi|
 A,,2 D,2 z4 | z8 | z8 | z8 | z8 | z8 | z8 | z8 | z8 | z8 | z8 | z8 | z8 | z8 | z8 | z8 | z8 | %50
w: fu- ra;|||||||||||||||||
 D,3 D, D,D, _E,2 | C,2 D,C, B,,A,, B,,2 | A,,4 z4 | z4 z2 D,2- | D,D,D,D, _E,2 C,2 | %55
w: mi spa- rio di- nan-|te, mi spa- rio di- nan-|te,|mi|_ spa- rio di- nan- te,|
 D,C,B,,A,, B,,4 | A,,4 z D,D,D, | _E,2 C,2 z4 |"^b" F,E,D,C, D,4 | B,,8 | !fermata!G,,8 |] %61
w: mi spa- rio di- nan-|te, l'a- ma- ta|for- ma,|mi spa- rio di- nan-||te.|
V:4
"^BC" G,8 | _E,6 =B,,2 | C,8 | D,4 G,,2 G,2 | E,4 F,4 | D,2 D,2 =B,,4 | C,2 =B,,2 A,,2 G,,2 | %7
 F,,4 G,,4 | _E,2 D,2 G,,2 F,,2 | G,,8 | D,6 G,2 | B,4 _A,4 | G,4 D,4 | F,2 F,2 _E,4 | D,6 A,,2 | %15
 C,4 B,,4 | A,,8 | G,,4 D,4 | D,2 E,2 ^F,2 G,2 | D,4 B,2 G,2 | A,4 D,2 B,,2 | C,2 D,2 _E,2 D,2 | %22
 C,2 B,,2 C,2 G,,2 | D,8 | G,,8 |: B,,8 | _E,2 G,2 F,4 | F,8 | ^B,,2 C,2 G,,4- | G,,2 G,2 D,4 | %30
 F,2 B,,2 C,2 C,2- | C,2 G,,2 D,2 G,,2 | z2 G,3 G, D,2 | A,,2 D,2 z4 | D,4 G,4 | F,4 D,4 | _E,8 | %37
 D,8 | A,,4 B,,4 | A,,8 | D,6 C,B,, | A,,2 G,,2 A,,4 | D,8 | D,8 | G,4 F,4 | B,,4 A,,4 | %46
 B,,2 C,2 D,2 C,2 | =B,,8 | C,4 D,2 G,,2 | A,,8 | D,6 _E,2 | C,2 D,C, B,,A,, B,,2 | A,,4 D,2 G,2 | %53
 C,4 F,2 D,2- | D,2 D,2 _E,2 C,2 | D,C,B,,A,, B,,4 | A,,4 D,4 | _E,2 C,2 E,4 | D,4 D,4- | D,8 | %60
 !fermata!G,,8 |] %61

